vectors/patreon/patreon.svg

<svg version="1.1" xmlns="http://www.w3.org/2000/svg" xmlns:xlink="http://www.w3.org/1999/xlink" viewBox="0 0 256 256">
    <g>
        <path d="M127.996927,0.00236400943 C57.3035887,0.00236400943 0,57.3059527 0,127.999291 L0,255.934753 L29.7127618,255.934753 L29.7127618,127.999291 C29.7127618,73.7216342 73.7187974,29.7132346 127.998818,29.7132346 C182.278839,29.7132346 226.284874,73.7192702 226.284874,127.999291 C226.284874,180.749797 184.71566,223.784225 132.5519,226.162419 C115.97783,226.026743 101.847673,223.336907 95.6586961,219.528535 L95.6586961,177.286523 C104.895827,183.334605 115.943788,186.860762 127.809224,186.860762 C160.262819,186.860762 186.569043,160.554065 186.569043,128.100943 C186.569043,95.6473489 160.262346,69.3269407 127.809224,69.3269407 C95.3556301,69.3269407 69.049406,95.6482945 69.049406,128.100943 L69.049406,255.937117 C88.4432665,255.919009 109.044663,255.963689 128.003073,255.937117 C198.696411,255.937117 256,198.690265 256,128.001655 C255.995272,57.3035887 198.686955,0 127.998345,0 L127.996927,0.00236400943 Z" fill="#FF5900" />
    </g>
</svg>

<svg xmlns="http://www.w3.org/2000/svg" viewBox="0 0 256 256"><path d="M127.997.002C57.304.002 0 57.306 0 128v127.936h29.713V127.999c0-54.277 44.006-98.286 98.286-98.286S226.285 73.72 226.285 128c0 52.75-41.57 95.785-93.733 98.163-16.574-.135-30.704-2.825-36.893-6.633v-42.242a58.508 58.508 0 0032.15 9.574c32.454 0 58.76-26.307 58.76-58.76 0-32.454-26.307-58.774-58.76-58.774S69.05 95.648 69.05 128.1v127.836c19.394-.018 39.996.027 58.954 0C198.696 255.937 256 198.69 256 128.002 255.995 57.304 198.687 0 127.998 0l-.001.002z" fill="#FF5900"/></svg>
